svgs/regular/circle-calendar.svg

<svg xmlns="http://www.w3.org/2000/svg" viewBox="0 0 512 512"><!--! Font Awesome Pro 6.6.0 by @fontawesome - https://fontawesome.com License - https://fontawesome.com/license (Commercial License) Copyright 2024 Fonticons, Inc. --><path d="M464 256A208 208 0 1 0 48 256a208 208 0 1 0 416 0zM0 256a256 256 0 1 1 512 0A256 256 0 1 1 0 256zM208 112c8.8 0 16 7.2 16 16l0 16 64 0 0-16c0-8.8 7.2-16 16-16s16 7.2 16 16l0 16 16 0c26.5 0 48 21.5 48 48l0 32 0 96c0 26.5-21.5 48-48 48l-160 0c-26.5 0-48-21.5-48-48l0-96 0-32c0-26.5 21.5-48 48-48l16 0 0-16c0-8.8 7.2-16 16-16zM176 320l160 0 0-96-160 0 0 96z"/></svg>

<svg xmlns="http://www.w3.org/2000/svg" viewBox="0 0 512 512"><!--! Font Awesome Pro 6.5.2 by @fontawesome - https://fontawesome.com License - https://fontawesome.com/license (Commercial License) Copyright 2024 Fonticons, Inc. --><path d="M464 256A208 208 0 1 0 48 256a208 208 0 1 0 416 0zM0 256a256 256 0 1 1 512 0A256 256 0 1 1 0 256zM208 112c8.8 0 16 7.2 16 16v16h64V128c0-8.8 7.2-16 16-16s16 7.2 16 16v16h16c26.5 0 48 21.5 48 48v32 96c0 26.5-21.5 48-48 48H176c-26.5 0-48-21.5-48-48V224 192c0-26.5 21.5-48 48-48h16V128c0-8.8 7.2-16 16-16zM176 320H336V224H176v96z"/></svg>
